packages/foundations/assets/icons/functional/images/audio & video/fast_backward_10_12.svg

<svg width="12" height="12" viewBox="0 0 12 12" fill="none" xmlns="http://www.w3.org/2000/svg">
<g clip-path="url(#clip0_231_74)">
<path fill-rule="evenodd" clip-rule="evenodd" d="M9.42698 9.2965C9.03898 9.2965 8.80398 8.9665 8.80398 8.7205C8.80398 8.4385 9.25098 7.7565 9.25098 6.9935C9.25098 5.3715 8.01698 4.1495 6.51298 4.0085L6.92298 4.3955C7.01798 4.5135 7.09998 4.6655 7.09998 4.8185C7.09998 5.1245 6.81798 5.3945 6.49998 5.3945C6.34036 5.39594 6.18634 5.33577 6.06998 5.2265L4.75697 3.9055C4.65005 3.78978 4.59232 3.63701 4.59598 3.4795C4.59598 3.3265 4.65498 3.1975 4.75998 3.0915L6.08898 1.7515C6.14186 1.69596 6.20546 1.65173 6.27594 1.62148C6.34641 1.59123 6.42228 1.57558 6.49898 1.5755C6.82898 1.5755 7.09898 1.8455 7.09898 2.1755C7.09872 2.25216 7.083 2.32799 7.05276 2.39844C7.02252 2.46888 6.97838 2.53251 6.92298 2.5855L6.65298 2.8555C7.68349 2.95048 8.64107 3.42798 9.33703 4.1939C10.033 4.95982 10.4168 5.95862 10.413 6.9935L10.408 7.1805C10.366 8.0305 10.049 9.2965 9.42698 9.2965ZM2.19798 10.4245H3.36198C3.70198 10.4245 3.93698 10.1425 3.93698 9.8365C3.93619 9.68106 3.87409 9.53221 3.76418 9.4223C3.65426 9.31239 3.50541 9.25029 3.34998 9.2495V6.9345C3.35084 6.83002 3.32298 6.72732 3.26943 6.6376C3.21588 6.54789 3.1387 6.47462 3.04633 6.4258C2.95395 6.37699 2.84994 6.3545 2.74565 6.36079C2.64136 6.36709 2.54081 6.40193 2.45498 6.4615L1.84698 6.8665C1.76713 6.91857 1.70154 6.98973 1.65614 7.07355C1.61074 7.15736 1.58697 7.25118 1.58698 7.3465C1.58698 7.6865 1.86898 7.9445 2.19798 7.9335V9.2495C1.86898 9.2495 1.62198 9.5195 1.62198 9.8495C1.62198 10.1545 1.86898 10.4245 2.19798 10.4245ZM6.15798 6.2995C7.12197 6.2995 7.78098 6.9815 7.78098 8.0275V8.6855C7.78098 9.7425 7.09998 10.4245 6.10098 10.4245C5.19598 10.4245 4.53798 9.7315 4.53798 8.7085V7.9815C4.53798 6.9815 5.21898 6.3015 6.15898 6.3015L6.15798 6.2995ZM6.14698 7.4725L6.09598 7.4745C5.86598 7.4895 5.71198 7.5745 5.71198 7.9685V8.7085C5.71198 9.1205 5.84198 9.2465 6.15798 9.2395C6.43998 9.2345 6.59298 9.0965 6.59298 8.6735V8.0155C6.59298 7.5215 6.35798 7.4665 6.14698 7.4725Z" fill="#1A1C1F"/>
</g>
<defs>
<clipPath id="clip0_231_74">
<rect width="12" height="12" fill="white"/>
</clipPath>
</defs>
</svg>

<svg xmlns="http://www.w3.org/2000/svg" width="12" height="12" fill="none"><g clip-path="url(#a)"><path fill="#1A1C1F" fill-rule="evenodd" d="M9.427 9.297c-.388 0-.623-.33-.623-.577 0-.282.447-.964.447-1.727 0-1.622-1.234-2.844-2.738-2.985l.41.388c.095.117.177.27.177.423 0 .306-.282.575-.6.575a.62.62 0 0 1-.43-.168l-1.313-1.32a.6.6 0 0 1-.161-.427c0-.153.059-.282.164-.388l1.329-1.34a.57.57 0 0 1 .41-.175c.33 0 .6.27.6.6a.57.57 0 0 1-.176.41l-.27.27a4.14 4.14 0 0 1 3.76 4.138l-.005.187c-.042.85-.359 2.116-.981 2.116m-7.229 1.127h1.164c.34 0 .575-.281.575-.588a.59.59 0 0 0-.587-.587V6.935a.57.57 0 0 0-.895-.473l-.608.406a.57.57 0 0 0-.26.48c0 .34.282.597.611.587v1.315c-.329 0-.576.27-.576.6 0 .306.247.575.576.575M6.158 6.3c.964 0 1.623.681 1.623 1.728v.657c0 1.057-.681 1.74-1.68 1.74-.905 0-1.563-.694-1.563-1.716v-.727c0-1 .681-1.68 1.621-1.68zm-.011 1.173-.051.002c-.23.014-.384.1-.384.494v.74c0 .412.13.537.446.53.282-.005.435-.143.435-.566v-.658c0-.494-.235-.549-.446-.543" clip-rule="evenodd"/></g><defs><clipPath id="a"><path fill="#fff" d="M0 0h12v12H0z"/></clipPath></defs></svg>
